X: 79
T: the Boys in the Gap
O: Trad Ireland
R: reel
Z: John Chambers <jc:trillian.mit.edu>
M: C|
L: 1/8
K: D
|: "D"D2FA d2dc | "A7"A2GE AEGE | "D"D2FA dfed |1,3 "A7"cAGE "D"EDFA :|2,4 "A7"cAGE "D"EDD2 :|
|: "D"f2fg fedf | "A7"e2ef edcB:|1,3ABcd edcd | ea~a2 ea~ag :|2,4 ABcd e2dB | A2GE "D"FDD2 :|

%%sep 1 1 500

